astro/public/img/footer/dev.svg

<?xml version="1.0" encoding="UTF-8"?>
<svg width="40px" height="40px" viewBox="0 0 40 40" version="1.1" xmlns="http://www.w3.org/2000/svg" xmlns:xlink="http://www.w3.org/1999/xlink">
    <title>dev-to-svgrepo-com</title>
    <g id="Page-1" stroke="none" stroke-width="1" fill="none" fill-rule="evenodd">
        <g id="dev-to-svgrepo-com" fill="#94A3B8" fill-rule="nonzero">
            <path d="M35,0 C37.7614237,-5.07265313e-16 40,2.23857625 40,5 L40,35 C40,37.7614237 37.7614237,40 35,40 L5,40 C2.23857625,40 3.38176876e-16,37.7614237 0,35 L0,5 C-3.38176876e-16,2.23857625 2.23857625,5.07265313e-16 5,0 L35,0 Z M26.3375,13.5171875 L23.7929688,13.5171875 L26.803125,24.8296875 C27.6304688,26.7539063 29.478125,27.2320313 30.509375,24.8296875 L33.5140625,13.5171875 L30.96875,13.5171875 L28.6585938,22.4015625 L26.3375,13.5171875 Z M22.4132812,13.5164063 L17.4765625,13.5164063 C16.6054688,13.5382813 15.915625,14.2617188 15.9367188,15.1328125 L15.9367188,24.9070312 C15.9585938,25.7789062 16.6835938,26.4679687 17.5554687,26.4453125 L22.4132812,26.4453125 L22.4132812,24.1351562 L18.25,24.1351562 L18.25,21.134375 L20.7945313,21.134375 L20.7945313,18.8242188 L18.25,18.8242188 L18.25,15.8226563 L22.4125,15.8226563 L22.4132812,13.5164063 Z M10.8453125,13.5140625 L7.14375,13.5140625 L7.14375,26.4406324 L10.76875,26.4406324 C13.6398437,26.4453125 14.546875,24.21875 14.546875,22.7492188 L14.5460937,17.2078125 C14.5453125,15.7375 13.6140625,13.5140625 10.8453125,13.5140625 Z M10.9742187,15.9328125 C11.7307812,15.9435937 12.2854687,16.4832812 12.3398437,17.2929687 L12.3398437,22.734375 C12.3310937,23.4172656 11.7683594,24.0519531 10.975,24.0945312 L9.61171875,24.0945312 L9.61171875,15.9328125 Z" id="Combined-Shape"></path>
        </g>
    </g>
</svg>

<svg xmlns="http://www.w3.org/2000/svg" width="40" height="40"><path fill="#94A3B8" d="M35 0a5 5 0 0 1 5 5v30a5 5 0 0 1-5 5H5a5 5 0 0 1-5-5V5a5 5 0 0 1 5-5h30Zm-8.663 13.517h-2.544l3.01 11.313c.827 1.924 2.675 2.402 3.706 0l3.005-11.313H30.97l-2.31 8.885-2.322-8.885Zm-3.924 0h-4.936a1.58 1.58 0 0 0-1.54 1.616v9.774a1.578 1.578 0 0 0 1.618 1.538h4.858v-2.31H18.25v-3h2.545v-2.31H18.25v-3.002h4.163v-2.307Zm-11.568-.003H7.144v12.927h3.625c2.87.004 3.778-2.222 3.778-3.692v-5.541c-.002-1.47-.933-3.694-3.702-3.694Zm.13 2.419c.756.01 1.31.55 1.365 1.36v5.441c-.009.683-.572 1.318-1.365 1.36H9.612v-8.161Z"/></svg>
